school/img/country/SM.svg

<svg width="13" height="12" viewBox="0 0 13 12" fill="none" xmlns="http://www.w3.org/2000/svg">
<rect x="0.25" y="0.25" width="12.5" height="11.5" rx="1.75" fill="white" stroke="#F5F5F5" stroke-width="0.5"/>
<mask id="mask0" mask-type="alpha" maskUnits="userSpaceOnUse" x="0" y="0" width="13" height="12">
<rect x="0.25" y="0.25" width="12.5" height="11.5" rx="1.75" fill="white" stroke="white" stroke-width="0.5"/>
</mask>
<g mask="url(#mask0)">
<path fill-rule="evenodd" clip-rule="evenodd" d="M0 12H13V5.6H0V12Z" fill="#7CCCF5"/>
<path d="M5.92851 5.6C5.92851 5.23181 5.63003 4.93333 5.26184 4.93333C4.89365 4.93333 4.59517 5.23181 4.59517 5.6H5.92851ZM5.47952 7.51826C5.7741 7.73914 6.19196 7.67941 6.41284 7.38483C6.63373 7.09026 6.57399 6.6724 6.27942 6.45151L5.47952 7.51826ZM6.74137 6.43501C6.45757 6.66958 6.41766 7.0898 6.65223 7.3736C6.88679 7.6574 7.30701 7.69731 7.59081 7.46274L6.74137 6.43501ZM8.40467 5.6C8.40467 5.23181 8.1062 4.93333 7.73801 4.93333C7.36982 4.93333 7.07134 5.23181 7.07134 5.6H8.40467ZM4.59517 5.6C4.59517 6.36392 4.91451 7.09458 5.47952 7.51826L6.27942 6.45151C6.10586 6.32137 5.92851 6.01901 5.92851 5.6H4.59517ZM7.59081 7.46274C8.11088 7.0329 8.40467 6.33374 8.40467 5.6H7.07134C7.07134 5.99969 6.90915 6.29634 6.74137 6.43501L7.59081 7.46274Z" fill="#445F42"/>
<path fill-rule="evenodd" clip-rule="evenodd" d="M6.50003 6.4C6.84192 6.4 7.11908 5.86274 7.11908 5.2C7.11908 4.53726 6.84192 4 6.50003 4C6.15814 4 5.88098 4.53726 5.88098 5.2C5.88098 5.86274 6.15814 6.4 6.50003 6.4Z" fill="#D89F3D"/>
</g>
</svg>

<svg width="13" height="12" fill="none" xmlns="http://www.w3.org/2000/svg"><rect x=".25" y=".25" width="12.5" height="11.5" rx="1.75" fill="#fff" stroke="#F5F5F5" stroke-width=".5"/><mask id="a" maskUnits="userSpaceOnUse" x="0" y="0" width="13" height="12"><rect x=".25" y=".25" width="12.5" height="11.5" rx="1.75" fill="#fff" stroke="#fff" stroke-width=".5"/></mask><g mask="url(#a)"><path fill-rule="evenodd" clip-rule="evenodd" d="M0 12h13V5.6H0V12z" fill="#7CCCF5"/><path d="M5.929 5.6a.667.667 0 00-1.334 0H5.93zm-.45 1.918a.667.667 0 00.8-1.066l-.8 1.066zm1.262-1.083a.667.667 0 00.85 1.028l-.85-1.028zM8.405 5.6a.667.667 0 10-1.334 0h1.334zm-3.81 0c0 .764.32 1.495.885 1.918l.8-1.066c-.174-.13-.351-.433-.351-.852H4.595zm2.996 1.863c.52-.43.814-1.13.814-1.863H7.07c0 .4-.162.696-.33.835l.85 1.028z" fill="#445F42"/><path fill-rule="evenodd" clip-rule="evenodd" d="M6.5 6.4c.342 0 .62-.537.62-1.2 0-.663-.278-1.2-.62-1.2-.342 0-.619.537-.619 1.2 0 .663.277 1.2.619 1.2z" fill="#D89F3D"/></g></svg>
